icons/testts.svg

<svg width="16" height="16" viewBox="0 0 16 16" fill="none" xmlns="http://www.w3.org/2000/svg">
<path fill-rule="evenodd" clip-rule="evenodd" d="M9.97986 6.33L13.6287 10.75C13.8529 11.0663 13.9804 11.4325 13.9979 11.8102C14.0154 12.1878 13.9222 12.5628 13.7282 12.8956C13.5342 13.2284 13.2465 13.5067 12.8955 13.7011C12.5445 13.8954 12.1432 13.9987 11.7339 14H4.27373C3.87671 14 3.48662 13.904 3.14226 13.7215C2.79789 13.539 2.51126 13.2765 2.31088 12.9599C2.11049 12.6434 2.00334 12.2839 2.00008 11.9173C1.99682 11.5506 2.09756 11.1895 2.29229 10.87L5.64883 6.35V4H5.10745V3H10.5212V4H9.97986V6.33ZM12.3201 12.8578C12.5114 12.757 12.6685 12.6089 12.7734 12.43C12.8749 12.2571 12.9254 12.0626 12.9197 11.866C12.914 11.6694 12.8523 11.4776 12.7409 11.31L8.8971 6.67V4H6.73159V6.65L3.19097 11.4C3.09742 11.5692 3.05293 11.7579 3.06183 11.9478C3.07073 12.1376 3.13272 12.3221 3.24176 12.4832C3.35079 12.6443 3.50316 12.7766 3.68401 12.8672C3.86486 12.9577 4.06804 13.0035 4.27373 13H11.6906C11.9107 13.0078 12.1287 12.9585 12.3201 12.8578ZM5.5626 10H10.3183L11.9828 11.8822C11.994 11.8938 12 11.9075 12 11.9214C12 11.9354 11.994 11.949 11.9828 11.9606C11.9757 11.973 11.963 11.9834 11.9468 11.9905C11.9305 11.9975 11.9114 12.0008 11.8922 11.9998H4.09059L4 11.9606L5.5626 10Z" fill="#0E8ADC"/>
</svg>

<svg xmlns="http://www.w3.org/2000/svg" width="16" height="16" fill="none"><path fill="#0E8ADC" fill-rule="evenodd" d="m9.98 6.33 3.649 4.42c.224.316.351.682.369 1.06a1.97 1.97 0 0 1-.27 1.086 2.183 2.183 0 0 1-.832.805 2.418 2.418 0 0 1-1.162.299h-7.46a2.42 2.42 0 0 1-1.132-.278 2.197 2.197 0 0 1-.831-.762A1.98 1.98 0 0 1 2 11.917a1.976 1.976 0 0 1 .291-1.047L5.65 6.35V4h-.542V3h5.414v1H9.98v2.33Zm2.34 6.528c.191-.101.348-.25.453-.428a1.052 1.052 0 0 0-.032-1.12L8.897 6.67V4H6.732v2.65L3.19 11.4a1.03 1.03 0 0 0 .05 1.083c.11.161.262.294.443.384.18.09.384.136.59.133h7.417c.22.008.438-.041.63-.142ZM5.563 10h4.755l1.665 1.882a.057.057 0 0 1 .017.04.056.056 0 0 1-.017.039.075.075 0 0 1-.036.03.124.124 0 0 1-.055.009H4.091L4 11.96 5.563 10Z" clip-rule="evenodd"/></svg>
